symbols/web/settings_input_component/materialsymbolssharp/settings_input_component_wght100fill1_24px.svg

<svg xmlns="http://www.w3.org/2000/svg" height="24" width="24"><path d="M19.65 22.35v-4h-2v-5h4.7v5h-2v4Zm-8 0v-4h-2v-5h4.7v5h-2v4Zm-8 0v-4h-2v-5h4.7v5h-2v4Zm-2-9.7v-6h2V2q0-.15.1-.25t.25-.1q.15 0 .25.1t.1.25v4.65h2v6Zm8 0v-6h2V2q0-.15.1-.25t.25-.1q.15 0 .25.1t.1.25v4.65h2v6Zm8 0v-6h2V2q0-.15.1-.25t.25-.1q.15 0 .25.1t.1.25v4.65h2v6Z"/></svg>

<svg xmlns="http://www.w3.org/2000/svg" height="24" width="24"><path d="M19.65 22.35V18.35H17.65V13.35H22.35V18.35H20.35V22.35ZM11.65 22.35V18.35H9.65V13.35H14.35V18.35H12.35V22.35ZM3.65 22.35V18.35H1.65V13.35H6.35V18.35H4.35V22.35ZM1.65 12.65V6.65H3.65V2Q3.65 1.85 3.75 1.75Q3.85 1.65 4 1.65Q4.15 1.65 4.25 1.75Q4.35 1.85 4.35 2V6.65H6.35V12.65ZM9.65 12.65V6.65H11.65V2Q11.65 1.85 11.75 1.75Q11.85 1.65 12 1.65Q12.15 1.65 12.25 1.75Q12.35 1.85 12.35 2V6.65H14.35V12.65ZM17.65 12.65V6.65H19.65V2Q19.65 1.85 19.75 1.75Q19.85 1.65 20 1.65Q20.15 1.65 20.25 1.75Q20.35 1.85 20.35 2V6.65H22.35V12.65Z"/></svg>
